X: 322
T:Wakefield Hunt
% Nottingham Music Database
S:Thompson 1779, via Phil Rowe
M:6/8
K:G
B2c |:"G"d3 B2c|dBG E2D|"C"EFG "G"D2B|"Am"c2B "D7"A2G|
"G"d3 B2c|dBG E2D|"C"EFG "G"D2c|"D7"BcA "G"G3::
"G"dBG "Am"ecA|"G"dBG E2D|"C"EFG "G"D2B|"Am"c2B "D7"A2G|
"G"dBG "Am"ecA|"G"dBG E2D|"C"EFG "G"D2c|"D7"BcA "G"G3::
"G"D2D "C"E2E|"G"D2B c2B|"Am"Ace "G"dBG|"D7"F2G A3|"G"D2D "C"E2E|"G"D2B c2B|\
"Am"Ace dec|"D7"BcA "G"G3:|


